X: 11156
T: Dun Ibrig
R: jig
M: 6/8
K: Eminor
EGB EGB|A^ce gfe|ded BAF|GBd FED|
EGB EGB|A^ce gfe|ded BAF|GFD E3:|
eBB eBB|ABd FED|eBB eBB|baf fed|
eBB eBB|ABd FED|EGB BAF|GFD E3:|

